assets/images/icon-personal-plan-access.svg

<svg width="40" height="40" viewBox="0 0 40 40" fill="none" xmlns="http://www.w3.org/2000/svg">
<mask id="mask0_3642_57057" style="mask-type:alpha" maskUnits="userSpaceOnUse" x="3" y="3" width="34" height="34">
<circle cx="20.0003" cy="20.0007" r="16.6667" fill="#D9D9D9"/>
</mask>
<g mask="url(#mask0_3642_57057)">
<circle cx="20.0003" cy="20.0007" r="16.6667" fill="#D3EDFF"/>
<path fill-rule="evenodd" clip-rule="evenodd" d="M0.975513 10.5892C0.706455 9.83584 0.749187 9.1347 1.09263 8.66306C1.10055 8.65198 1.11004 8.63932 1.11954 8.62824L2.30796 7.10587L2.30577 7.10885C2.30142 7.11478 2.29707 7.12072 2.29232 7.12626C2.17027 7.2933 2.0862 7.48953 2.0406 7.70698L2.44584 7.18786C2.69432 6.86974 3.09158 6.70514 3.56481 6.72413L2.36512 8.26094C2.29482 8.25812 2.22626 8.25934 2.15965 8.26447C2.17466 8.5019 2.22825 8.75468 2.32081 9.01432L2.21267 9.15285L15.1407 45.3626C15.6899 46.7222 16.6252 47.5341 17.6936 47.6164C17.8439 47.6275 17.9974 47.6243 18.1524 47.6069L30.5762 46.1774L30.6501 46.0825C30.6532 45.7887 30.5985 45.4717 30.4849 45.1489L30.6991 44.8745L30.4834 45.1505L18.4675 11.1194C18.0354 9.89753 16.8643 8.86719 15.8323 8.78805L17.032 7.25125C18.0639 7.33039 19.2351 8.3591 19.6672 9.5825L31.6842 43.6125L31.6846 43.6121C31.9283 44.299 31.903 44.9621 31.6181 45.4306L31.435 45.6651L31.4353 45.6648L31.6181 45.4306C31.5912 45.4749 31.5612 45.5177 31.5311 45.5572L31.145 46.0519C31.3443 45.9656 31.5155 45.8331 31.6528 45.6576L30.4549 47.1922C30.2317 47.4786 29.9183 47.6511 29.5401 47.6955L16.9531 49.1434L16.9529 49.1437C16.7993 49.1611 16.6442 49.1643 16.4939 49.1532C15.424 49.0709 14.4902 48.259 13.941 46.8994L15.1236 45.3845L13.9394 46.8994L0.975513 10.5892Z" fill="#3F568E"/>
<path d="M2.31923 7.09144C2.31527 7.09605 2.31159 7.10094 2.30796 7.10587L2.31923 7.09144Z" fill="#3F568E"/>
<path d="M15.8307 8.78804L17.032 7.25125L3.56481 6.72413L2.36512 8.26094L15.8307 8.78804Z" fill="#3F568E"/>
<path fill-rule="evenodd" clip-rule="evenodd" d="M31.7509 45.5139C32.058 45.0106 32.0865 44.3031 31.8285 43.5751L31.8269 43.5735L19.8111 9.5423C19.3584 8.2619 18.1223 7.18249 16.9622 7.09386L3.55674 6.57157C3.01862 6.55258 2.56913 6.74883 2.29374 7.12552C1.9503 7.59716 1.90757 8.2983 2.17662 9.05166L15.1405 45.362C15.6897 46.7215 16.6235 47.5334 17.6934 47.6157C17.8438 47.6268 17.9989 47.6236 18.1524 47.6062L30.7396 46.1581C31.1748 46.1058 31.5246 45.8842 31.7509 45.5139Z" fill="#FFF9E1"/>
<path d="M31.9537 47.7255L18.4142 49.2887C17.3129 49.4162 16.0279 48.421 15.5509 47.0647L8.33328 26.5392L2.17199 9.01778C1.69505 7.66151 2.25479 6.59338 3.41234 6.62981L17.6541 7.08356C18.6974 7.11668 19.9013 8.17653 20.3501 9.45L26.3627 26.5392L32.9324 45.2116C33.3812 46.4868 32.9457 47.6112 31.9537 47.7255Z" fill="#3F568E"/>
<path d="M31.5366 46.9109L18.2455 48.403C17.5052 48.4858 16.6424 47.8167 16.3228 46.9059L9.18408 26.6059L3.03166 9.11071C2.71205 8.20156 3.08465 7.48285 3.86298 7.50438L17.8166 7.90844C18.5204 7.92832 19.3318 8.64206 19.6349 9.50153L25.6528 26.6059L32.2007 45.2168C32.5037 46.0762 32.2073 46.8347 31.5383 46.9092L31.5366 46.9109Z" fill="#F8F8F8"/>
</g>
<circle cx="9.08234" cy="9.08234" r="9.08234" transform="matrix(-1 0 0 1 38.4006 0.833984)" fill="#FFC509"/>
<circle cx="9.08234" cy="9.08234" r="9.08234" transform="matrix(-1 0 0 1 36.9069 0.833984)" fill="#FEE283"/>
<circle cx="6.90119" cy="6.90119" r="6.90119" transform="matrix(-1 0 0 1 34.7259 3.01416)" fill="#FFF9E1"/>
<path d="M27.444 4.67644C27.5638 4.30784 28.0852 4.30784 28.205 4.67644L29.174 7.65879C29.2276 7.82363 29.3812 7.93524 29.5545 7.93524H32.6904C33.0779 7.93524 33.2391 8.43119 32.9255 8.659L30.3886 10.5022C30.2484 10.6041 30.1897 10.7847 30.2433 10.9495L31.2123 13.9319C31.332 14.3005 30.9102 14.607 30.5966 14.3792L28.0597 12.536C27.9195 12.4341 27.7296 12.4341 27.5893 12.536L25.0524 14.3792C24.7389 14.607 24.317 14.3005 24.4367 13.9319L25.4058 10.9495C25.4593 10.7847 25.4007 10.6041 25.2604 10.5022L22.7235 8.659C22.4099 8.43119 22.5711 7.93524 22.9587 7.93524H26.0945C26.2678 7.93524 26.4214 7.82363 26.475 7.65879L27.444 4.67644Z" fill="#FFC509"/>
<path fill-rule="evenodd" clip-rule="evenodd" d="M0.975147 10.5892C0.706088 9.83584 0.748821 9.1347 1.09227 8.66306C1.10018 8.65198 1.10968 8.63932 1.11917 8.62824L2.30759 7.10587L2.30541 7.10885C2.30105 7.11478 2.2967 7.12072 2.29195 7.12626C2.1699 7.2933 2.08583 7.48953 2.04023 7.70698L2.44547 7.18786C2.69395 6.86974 3.09121 6.70514 3.56444 6.72413L2.36475 8.26093C2.29445 8.25812 2.22589 8.25934 2.15928 8.26447C2.1743 8.5019 2.22789 8.75468 2.32045 9.01432L2.2123 9.15285L7.77603 24.7362L22.9916 24.0227L18.4672 11.1194C18.0351 9.89753 16.8639 8.86719 15.832 8.78805L17.0317 7.25125C18.0636 7.33039 19.2347 8.3591 19.6668 9.5825L24.8473 24.2526L6.02606 24.7362L0.975147 10.5892Z" fill="#3F568E"/>
<path d="M2.31886 7.09144C2.31491 7.09605 2.31123 7.10094 2.30759 7.10587L2.31886 7.09144Z" fill="#3F568E"/>
<path d="M15.8303 8.78804L17.0317 7.25125L3.56444 6.72413L2.36475 8.26093L15.8303 8.78804Z" fill="#3F568E"/>
<path fill-rule="evenodd" clip-rule="evenodd" d="M25.4833 24.1252L20.3344 9.5423C19.8817 8.2619 18.8066 6.89202 16.962 7.09386L3.55649 6.57157C3.01838 6.55258 2.56889 6.74883 2.2935 7.12552C1.95005 7.59716 1.90732 8.2983 2.17638 9.05166L7.88713 25.0468L25.4833 24.1252Z" fill="#3F568E"/>
<path d="M8.63279 25.0204L3.03117 9.11071C2.71156 8.20156 3.08416 7.48285 3.86249 7.50438L17.8161 7.90844C18.5199 7.92832 19.3313 8.64206 19.6344 9.50153L24.833 24.2772L8.63279 25.0204Z" fill="#F8F8F8"/>
<path d="M12.3378 7.7168C12.4818 8.12418 12.4835 8.51334 12.346 8.79487C12.2069 9.07805 11.937 9.23205 11.5959 9.22377C11.2547 9.21549 10.8672 9.04492 10.5228 8.7485C10.1767 8.45207 9.90177 8.05297 9.75604 7.64062L12.3394 7.71515L12.3378 7.7168Z" fill="#3F568E"/>
<path d="M15.6404 18.9303L12.0915 25.0869C11.3237 24.4498 10.743 23.634 10.4451 22.7627C10.0975 21.7459 10.1616 20.7315 10.6244 19.9301C11.0871 19.1288 11.9131 18.6022 12.9308 18.4603C13.8004 18.3391 14.7525 18.5068 15.6404 18.9303Z" fill="#EA4F4A"/>
<path d="M16.6516 19.0921L12.8725 25.6359C13.2702 25.8694 13.6916 26.0515 14.1225 26.1751C14.6945 26.3392 15.2712 26.397 15.8175 26.3444C16.3639 26.2919 16.8683 26.1302 17.3 25.8689C17.7317 25.6077 18.0814 25.2525 18.3277 24.8249L21.5938 19.1589C21.1449 18.9147 20.6743 18.7267 20.1976 18.6016C19.5741 18.438 18.9529 18.3855 18.3695 18.4466C17.7697 18.5094 17.2298 18.6573 16.8135 18.9461C16.7426 18.9952 16.6948 19.0384 16.6516 19.0921Z" fill="#EA4F4A"/>
</svg>

<svg xmlns="http://www.w3.org/2000/svg" width="40" height="40" fill="none" viewBox="0 0 40 40"><mask id="a" width="34" height="34" x="3" y="3" maskUnits="userSpaceOnUse" style="mask-type:alpha"><circle cx="20.0003" cy="20.0007" r="16.6667" fill="#D9D9D9"/></mask><g mask="url(#a)"><circle cx="20.0003" cy="20.0007" r="16.6667" fill="#D3EDFF"/><path fill="#3F568E" fill-rule="evenodd" d="M.976 10.59c-.27-.754-.227-1.455.117-1.927l.027-.035 1.188-1.522-.002.003-.014.017a1.5 1.5 0 0 0-.251.581l.405-.52c.248-.317.646-.482 1.119-.463l-1.2 1.537a2 2 0 0 0-.205.003q.022.358.16.75l-.107.139 12.928 36.21c.549 1.36 1.484 2.171 2.553 2.253q.225.017.458-.01l12.424-1.429.074-.094a2.7 2.7 0 0 0-.165-.934l.214-.275-.216.276-12.015-34.03c-.433-1.222-1.604-2.253-2.636-2.332l1.2-1.537c1.032.08 2.203 1.108 2.635 2.331l12.017 34.03c.244.687.219 1.35-.066 1.819l-.183.234.183-.234a2 2 0 0 1-.087.126l-.386.495q.3-.13.508-.394l-1.198 1.534a1.32 1.32 0 0 1-.915.504l-12.587 1.447q-.232.027-.46.01c-1.069-.082-2.003-.894-2.552-2.254l1.183-1.514-1.185 1.514z" clip-rule="evenodd"/><path fill="#3F568E" d="m2.32 7.091-.012.015zm13.51 1.697 1.202-1.537-13.467-.527-1.2 1.537z"/><path fill="#FFF9E1" fill-rule="evenodd" d="M31.75 45.514c.308-.503.337-1.21.078-1.939l-.001-.002L19.81 9.544c-.453-1.281-1.689-2.36-2.849-2.45L3.557 6.573c-.538-.02-.988.177-1.263.554-.344.471-.386 1.172-.117 1.926l12.964 36.31c.549 1.36 1.483 2.171 2.552 2.254.15.01.306.008.46-.01l12.587-1.448a1.33 1.33 0 0 0 1.01-.644" clip-rule="evenodd"/><path fill="#3F568E" d="m31.954 47.726-13.54 1.563c-1.101.127-2.386-.868-2.863-2.224L8.333 26.539 2.172 9.018c-.477-1.356.083-2.425 1.24-2.388l14.242.454c1.043.033 2.247 1.093 2.696 2.366l6.013 17.09 6.57 18.672c.448 1.275.013 2.4-.98 2.513"/><path fill="#F8F8F8" d="m31.537 46.91-13.291 1.493c-.74.083-1.604-.586-1.923-1.497l-7.139-20.3L3.032 9.11c-.32-.91.053-1.628.831-1.607l13.954.404c.703.02 1.515.734 1.818 1.594l6.018 17.104 6.548 18.61c.303.86.006 1.619-.663 1.693z"/></g><circle cx="9.08234" cy="9.08234" r="9.08234" fill="#FFC509" transform="matrix(-1 0 0 1 38.4 .834)"/><circle cx="9.08234" cy="9.08234" r="9.08234" fill="#FEE283" transform="matrix(-1 0 0 1 36.907 .834)"/><circle cx="6.90119" cy="6.90119" r="6.90119" fill="#FFF9E1" transform="matrix(-1 0 0 1 34.726 3.014)"/><path fill="#FFC509" d="M27.444 4.676a.4.4 0 0 1 .761 0l.969 2.983a.4.4 0 0 0 .38.276h3.136a.4.4 0 0 1 .236.724l-2.537 1.843a.4.4 0 0 0-.146.447l.97 2.983a.4.4 0 0 1-.616.447l-2.537-1.843a.4.4 0 0 0-.47 0l-2.538 1.843a.4.4 0 0 1-.615-.447l.969-2.982a.4.4 0 0 0-.146-.448L22.724 8.66a.4.4 0 0 1 .235-.724h3.136a.4.4 0 0 0 .38-.276z"/><path fill="#3F568E" fill-rule="evenodd" d="M.975 10.59c-.269-.754-.226-1.455.117-1.927l.027-.035 1.189-1.522-.003.003-.013.017a1.5 1.5 0 0 0-.252.581l.405-.52c.249-.317.646-.482 1.12-.463l-1.2 1.537a2 2 0 0 0-.206.003q.023.358.161.75l-.108.139 5.564 15.583 15.216-.713-4.525-12.904c-.432-1.221-1.603-2.252-2.635-2.33l1.2-1.538c1.032.08 2.203 1.108 2.635 2.331l5.18 14.67-18.82.484z" clip-rule="evenodd"/><path fill="#3F568E" d="m2.319 7.091-.011.015zM15.83 8.788l1.202-1.537-13.468-.527-1.2 1.537z"/><path fill="#3F568E" fill-rule="evenodd" d="M25.483 24.125 20.334 9.542c-.452-1.28-1.527-2.65-3.372-2.448L3.556 6.572c-.538-.02-.987.177-1.263.554-.343.471-.386 1.172-.117 1.926l5.711 15.995z" clip-rule="evenodd"/><path fill="#F8F8F8" d="M8.633 25.02 3.03 9.11c-.32-.908.053-1.627.831-1.606l13.954.404c.704.02 1.515.734 1.818 1.594l5.199 14.775z"/><path fill="#3F568E" d="M12.338 7.717c.144.407.146.796.008 1.078-.14.283-.409.437-.75.429s-.729-.18-1.073-.476a2.7 2.7 0 0 1-.767-1.107l2.583.074z"/><path fill="#EA4F4A" d="m15.64 18.93-3.549 6.157c-.767-.637-1.348-1.453-1.646-2.324-.348-1.017-.283-2.032.18-2.833s1.288-1.328 2.306-1.47c.87-.12 1.822.047 2.71.47m1.011.162-3.78 6.544c.398.233.82.416 1.25.54a4.6 4.6 0 0 0 1.696.168 3.5 3.5 0 0 0 1.482-.475 2.9 2.9 0 0 0 1.028-1.044l3.266-5.666a6.3 6.3 0 0 0-1.396-.557 5.1 5.1 0 0 0-1.829-.155c-.6.062-1.14.21-1.555.5a.7.7 0 0 0-.162.145"/></svg>
